src/topics/icons/apphub.svg

<svg height="188" preserveAspectRatio="xMidYMid" viewBox="0 0 256 188" width="256" xmlns="http://www.w3.org/2000/svg"><path d="m244.675204 104.605355c-7.450524-9.2386494-16.838183-15.348079-28.461001-18.0302676 3.576251-5.5133877 5.513388-11.6228172 5.513388-18.3282887 0-9.3876602-3.278231-17.4342259-9.983703-24.1396974-6.705471-6.7054715-14.752036-9.983702-24.139698-9.983702-8.493597 0-15.795109 2.6821886-22.05355 8.1955763-5.215366-12.8149011-13.559952-23.096624-25.18277-30.8451688-11.473807-7.59953439-24.139698-11.4738068-37.997672-11.4738068-18.9243307 0-35.0174622 6.70547148-48.2793947 19.967404-13.2619325 13.2619325-19.967404 29.355064-19.967404 48.2793947 0 1.1920838.1490105 3.12922.298021 5.6623982-10.4307334 4.9173456-18.7753202 12.218859-25.03376023 22.0535506-6.25844004 9.6856815-9.38766007 20.4144355-9.38766007 31.8882425 0 16.391153 5.81140862 30.547148 17.5832364 42.169965 11.6228172 11.622817 25.7788125 17.583235 42.169965 17.583235h144.9871956c14.155995 0 26.225843-5.066355 36.209545-15.050057 9.983701-9.983702 15.050058-22.053551 15.050058-36.209546-.149011-11.771828-3.874272-22.351572-11.324796-31.739232zm-43.958091 82.998835h-21.159487l-7.152504-22.35157h-41.275902l-7.152503 22.35157h-21.159488l38.146683-106.3934799h21.606519zm-64.223515-39.338766h30.547147l-15.199068-47.981373z" fill="#00a4d3"/></svg>

<?xml version="1.0" encoding="UTF-8" standalone="no"?>
<svg width="256px" height="188px" viewBox="0 0 256 188" version="1.1" xmlns="http://www.w3.org/2000/svg" xmlns:xlink="http://www.w3.org/1999/xlink" preserveAspectRatio="xMidYMid">
    <g>
        <path d="M244.675204,104.605355 C237.22468,95.3667056 227.837021,89.257276 216.214203,86.5750874 C219.790454,81.0616997 221.727591,74.9522702 221.727591,68.2467987 C221.727591,58.8591385 218.44936,50.8125728 211.743888,44.1071013 C205.038417,37.4016298 196.991852,34.1233993 187.60419,34.1233993 C179.110593,34.1233993 171.809081,36.8055879 165.55064,42.3189756 C160.335274,29.5040745 151.990688,19.2223516 140.36787,11.4738068 C128.894063,3.87427241 116.228172,0 102.370198,0 C83.4458673,0 67.3527358,6.70547148 54.0908033,19.967404 C40.8288708,33.2293365 34.1233993,49.322468 34.1233993,68.2467987 C34.1233993,69.4388825 34.2724098,71.3760187 34.4214203,73.9091969 C23.9906869,78.8265425 15.6461001,86.1280559 9.38766007,95.9627475 C3.12922003,105.648429 0,116.377183 0,127.85099 C0,144.242143 5.81140862,158.398138 17.5832364,170.020955 C29.2060536,181.643772 43.3620489,187.60419 59.7532014,187.60419 L204.740397,187.60419 C218.896392,187.60419 230.96624,182.537835 240.949942,172.554133 C250.933643,162.570431 256,150.500582 256,136.344587 C255.850989,124.572759 252.125728,113.993015 244.675204,104.605355 L244.675204,104.605355 L244.675204,104.605355 Z M200.717113,187.60419 L179.557626,187.60419 L172.405122,165.25262 L131.12922,165.25262 L123.976717,187.60419 L102.817229,187.60419 L140.963912,81.2107101 L162.570431,81.2107101 L200.717113,187.60419 L200.717113,187.60419 L200.717113,187.60419 Z M136.493598,148.265424 L167.040745,148.265424 L151.841677,100.284051 L136.493598,148.265424 L136.493598,148.265424 Z" fill="#00A4D3"></path>
    </g>
</svg>
